Sources/FrostedUI/Resources/Icons.xcassets/thumbDownFilled32.imageset/thumb-down-filled-32.svg

<svg width="32" height="32" viewBox="0 0 32 32" fill="none" xmlns="http://www.w3.org/2000/svg" data-fui-icon="true">
  <path
    fill-rule="evenodd"
    clip-rule="evenodd"
    d="M8.71437 18.4167H4.99996C3.84938 18.4167 2.91663 17.484 2.91663 16.3334V6.33337C2.91663 5.18275 3.84938 4.25004 4.99996 4.25004H23.2293C25.5767 4.25004 27.5721 5.96479 27.9252 8.28547L29.0412 15.6188C29.4786 18.4937 27.2533 21.0834 24.3452 21.0834H18.2308L18.8633 25.1404C19.1867 27.2145 17.5757 29.0834 15.4813 29.0834C14.7023 29.0834 13.9853 28.6486 13.6276 27.9541L8.71437 18.4167ZM8.24996 5.75004V16.9167H4.99996C4.67779 16.9167 4.41663 16.6556 4.41663 16.3334V6.33337C4.41663 6.0112 4.67779 5.75004 4.99996 5.75004H8.24996Z"
    fill="currentColor"
  />
</svg>

<svg xmlns="http://www.w3.org/2000/svg" width="32" height="32" fill="none" data-fui-icon="true" viewBox="0 0 32 32"><path fill="currentColor" fill-rule="evenodd" d="M8.714 18.417H5a2.083 2.083 0 0 1-2.083-2.084v-10c0-1.15.932-2.083 2.083-2.083h18.23a4.75 4.75 0 0 1 4.695 4.035l1.116 7.334a4.75 4.75 0 0 1-4.696 5.464h-6.114l.632 4.057a3.42 3.42 0 0 1-3.382 3.943 2.09 2.09 0 0 1-1.853-1.129zM8.25 5.75v11.167H5a.583.583 0 0 1-.583-.584v-10c0-.322.26-.583.583-.583z" clip-rule="evenodd"/></svg>
